X: 85
T:Voila la printemps
M:3/4
L:1/8
C:Maubissons
R:Mazurka
Z:Steve Mansfield
K:G
DEF | G2 GD BA | G2 GD cB | AB AG EC | DE DC EF | G2 GD BA |
G2 GD cB | AB AG EC |1 D3 :|2 D6 |: DF Ac BA | dB GB cB |
AB AG EC | DE DC D2 | DF Ac BA | dB GB cB | AB AG EC |1 D6:|2 D3 ||

